Catalina-light/actions/16/configure-shortcuts.svg

<svg width="16" height="16" viewBox="0 0 16 16" xmlns="http://www.w3.org/2000/svg">
<defs>
<style id="current-color-scheme" type="text/css">.ColorScheme-Text { color:#5c616c; } .ColorScheme-Highlight { color:#5294e2; }</style>
</defs>
<path class="ColorScheme-Text" d="m2 2s-2 0-2 2v8c0 2 2 2 2 2h11s2 0 2-2v-8c0-2-2-2-2-2h-11zm0.25 2h1.5c0.1385 0 0.25 0.1115 0.25 0.25v1.5c0 0.1385-0.1115 0.25-0.25 0.25h-1.5c-0.1385 0-0.25-0.1115-0.25-0.25v-1.5c0-0.1385 0.1115-0.25 0.25-0.25zm3 0h1.5c0.1385 0 0.25 0.1115 0.25 0.25v1.5c0 0.1385-0.1115 0.25-0.25 0.25h-1.5c-0.1385 0-0.25-0.1115-0.25-0.25v-1.5c0-0.1385 0.1115-0.25 0.25-0.25zm3 0h1.5c0.1385 0 0.25 0.1115 0.25 0.25v1.5c0 0.1385-0.1115 0.25-0.25 0.25h-1.5c-0.1385 0-0.25-0.1115-0.25-0.25v-1.5c0-0.1385 0.1115-0.25 0.25-0.25zm3 0h1.5c0.1385 0 0.25 0.1115 0.25 0.25v1.5c0 0.1385-0.1115 0.25-0.25 0.25h-1.5c-0.1385 0-0.25-0.1115-0.25-0.25v-1.5c0-0.1385 0.1115-0.25 0.25-0.25zm-9 3h1.5c0.1385 0 0.25 0.1115 0.25 0.25v1.5c0 0.1385-0.1115 0.25-0.25 0.25h-1.5c-0.1385 0-0.25-0.1115-0.25-0.25v-1.5c0-0.1385 0.1115-0.25 0.25-0.25zm3 0h1.5c0.1385 0 0.25 0.1115 0.25 0.25v1.5c0 0.1385-0.1115 0.25-0.25 0.25h-1.5c-0.1385 0-0.25-0.1115-0.25-0.25v-1.5c0-0.1385 0.1115-0.25 0.25-0.25zm3 0h1.5c0.1385 0 0.25 0.1115 0.25 0.25v1.5c0 0.1385-0.1115 0.25-0.25 0.25h-1.5c-0.1385 0-0.25-0.1115-0.25-0.25v-1.5c0-0.1385 0.1115-0.25 0.25-0.25zm3 0h1.5c0.1385 0 0.25 0.1115 0.25 0.25v1.5c0 0.1385-0.1115 0.25-0.25 0.25h-1.5c-0.1385 0-0.25-0.1115-0.25-0.25v-1.5c0-0.1385 0.1115-0.25 0.25-0.25zm-7 3h6.5c0.1385 0 0.25 0.1115 0.25 0.25v1.5c0 0.1385-0.1115 0.25-0.25 0.25h-6.5c-0.1385 0-0.25-0.1115-0.25-0.25v-1.5c0-0.1385 0.1115-0.25 0.25-0.25z" fill="currentColor"/>
</svg>

<svg xmlns="http://www.w3.org/2000/svg" width="16" height="16" viewBox="0 0 16 16">
 <defs>
  <style id="current-color-scheme" type="text/css">
   .ColorScheme-Text { color:#5c616c; } .ColorScheme-Highlight { color:#5294e2; }
  </style>
 </defs>
 <path style="fill:currentColor" class="ColorScheme-Text" d="M 2 2 C 2 2 0 2 0 4 L 0 12 C 0 14 2 14 2 14 L 13 14 C 13 14 15 14 15 12 L 15 4 C 15 2 13 2 13 2 L 2 2 z M 2.25 4 L 3.75 4 C 3.8885 4 4 4.1115 4 4.25 L 4 5.75 C 4 5.8885 3.8885 6 3.75 6 L 2.25 6 C 2.1115 6 2 5.8885 2 5.75 L 2 4.25 C 2 4.1115 2.1115 4 2.25 4 z M 5.25 4 L 6.75 4 C 6.8885 4 7 4.1115 7 4.25 L 7 5.75 C 7 5.8885 6.8885 6 6.75 6 L 5.25 6 C 5.1115 6 5 5.8885 5 5.75 L 5 4.25 C 5 4.1115 5.1115 4 5.25 4 z M 8.25 4 L 9.75 4 C 9.8885 4 10 4.1115 10 4.25 L 10 5.75 C 10 5.8885 9.8885 6 9.75 6 L 8.25 6 C 8.1115 6 8 5.8885 8 5.75 L 8 4.25 C 8 4.1115 8.1115 4 8.25 4 z M 11.25 4 L 12.75 4 C 12.8885 4 13 4.1115 13 4.25 L 13 5.75 C 13 5.8885 12.8885 6 12.75 6 L 11.25 6 C 11.1115 6 11 5.8885 11 5.75 L 11 4.25 C 11 4.1115 11.1115 4 11.25 4 z M 2.25 7 L 3.75 7 C 3.8885 7 4 7.1115 4 7.25 L 4 8.75 C 4 8.8885 3.8885 9 3.75 9 L 2.25 9 C 2.1115 9 2 8.8885 2 8.75 L 2 7.25 C 2 7.1115 2.1115 7 2.25 7 z M 5.25 7 L 6.75 7 C 6.8885 7 7 7.1115 7 7.25 L 7 8.75 C 7 8.8885 6.8885 9 6.75 9 L 5.25 9 C 5.1115 9 5 8.8885 5 8.75 L 5 7.25 C 5 7.1115 5.1115 7 5.25 7 z M 8.25 7 L 9.75 7 C 9.8885 7 10 7.1115 10 7.25 L 10 8.75 C 10 8.8885 9.8885 9 9.75 9 L 8.25 9 C 8.1115 9 8 8.8885 8 8.75 L 8 7.25 C 8 7.1115 8.1115 7 8.25 7 z M 11.25 7 L 12.75 7 C 12.8885 7 13 7.1115 13 7.25 L 13 8.75 C 13 8.8885 12.8885 9 12.75 9 L 11.25 9 C 11.1115 9 11 8.8885 11 8.75 L 11 7.25 C 11 7.1115 11.1115 7 11.25 7 z M 4.25 10 L 10.75 10 C 10.8885 10 11 10.1115 11 10.25 L 11 11.75 C 11 11.8885 10.8885 12 10.75 12 L 4.25 12 C 4.1115 12 4 11.8885 4 11.75 L 4 10.25 C 4 10.1115 4.1115 10 4.25 10 z"/>
</svg>
